Simply-Black-Circles/scalable/apps/com.github.themix_project.Oomox.svg

<svg xmlns="http://www.w3.org/2000/svg" width="48" height="48" viewBox="0 0 12.7 12.7"><path d="M6.34.07a6.29 6.29 0 0 0-6.29 6.3 6.29 6.29 0 0 0 6.3 6.28 6.29 6.29 0 0 0 6.28-6.29A6.29 6.29 0 0 0 6.34.07zM6.32 1l.01.01a5.4 5.4 0 0 1 5.4 5.4 5.4 5.4 0 0 1-5.4 5.41 5.4 5.4 0 0 1-5.41-5.4A5.4 5.4 0 0 1 6.32 1zm-.22.72A4.7 4.7 0 0 0 2.97 3.1a4.7 4.7 0 0 0-1.23 4.54 4.7 4.7 0 0 0 3.33 3.31A4.7 4.7 0 0 0 9.6 9.73a4.7 4.7 0 0 0 1.2-4.53h.01A4.7 4.7 0 0 0 7.5 1.88L7.04 3.6H8.4a.7.7 0 0 1 .06 0 .7.7 0 0 1 .07.01.7.7 0 0 1 .07.02.7.7 0 0 1 .06.02.7.7 0 0 1 .07.03.7.7 0 0 1 .06.03.7.7 0 0 1 .05.05.7.7 0 0 1 .06.04.7.7 0 0 1 .04.05.7.7 0 0 1 .04.06.7.7 0 0 1 .04.06.7.7 0 0 1 .03.06.7.7 0 0 1 .02.07.7.7 0 0 1 .02.07.7.7 0 0 1 0 .07.7.7 0 0 1 .01.07V6.42a2.82 2.82 0 0 1 0 .03 2.82 2.82 0 0 1-.02.29 2.82 2.82 0 0 1-.04.27 2.82 2.82 0 0 1-.08.28 2.82 2.82 0 0 1-.1.26 2.82 2.82 0 0 1-.12.25 2.82 2.82 0 0 1-.15.24 2.82 2.82 0 0 1-.18.22 2.82 2.82 0 0 1-.13.15 2.82 2.82 0 0 1-.06.06 2.82 2.82 0 0 1-.21.18 2.82 2.82 0 0 1-.24.16 2.82 2.82 0 0 1-.24.14 2.82 2.82 0 0 1-.26.11 2.82 2.82 0 0 1-.27.09 2.82 2.82 0 0 1-.28.06 2.82 2.82 0 0 1-.28.03 2.82 2.82 0 0 1-.28 0 2.82 2.82 0 0 1-.28-.03 2.82 2.82 0 0 1-.28-.05 2.82 2.82 0 0 1-.05-.02 2.82 2.82 0 0 1-.21-.06 2.82 2.82 0 0 1-.27-.11 2.82 2.82 0 0 1-.24-.13 2.82 2.82 0 0 1-.24-.16 2.82 2.82 0 0 1-.22-.18 2.82 2.82 0 0 1-.2-.2A2.82 2.82 0 0 1 4 8.08a2.82 2.82 0 0 1-.16-.24 2.82 2.82 0 0 1-.13-.25 2.82 2.82 0 0 1-.1-.26 2.82 2.82 0 0 1-.05-.18 2.82 2.82 0 0 1-.03-.09 2.82 2.82 0 0 1-.05-.28 2.82 2.82 0 0 1-.02-.28 2.82 2.82 0 0 1 0-.28 2.82 2.82 0 0 1 .04-.28 2.82 2.82 0 0 1 .06-.28 2.82 2.82 0 0 1 .09-.26 2.82 2.82 0 0 1 .12-.26 2.82 2.82 0 0 1 .14-.24 2.82 2.82 0 0 1 .16-.23 2.82 2.82 0 0 1 .19-.22 2.82 2.82 0 0 1 .02-.02 2.82 2.82 0 0 1 .01-.01 2.82 2.82 0 0 1 .17-.16 2.82 2.82 0 0 1 .23-.17 2.82 2.82 0 0 1 .24-.15 2.82 2.82 0 0 1 .25-.12 2.82 2.82 0 0 1 .27-.1 2.82 2.82 0 0 1 .27-.07A2.82 2.82 0 0 1 6 3.61a2.82 2.82 0 0 1 .28-.01h.76l.46-1.72a4.7 4.7 0 0 0-1.4-.16zm2.06 2.35a.47.47 0 0 0-.03 0 .47.47 0 0 0-.05 0 .47.47 0 0 0-.04.02.47.47 0 0 0-.05.01.47.47 0 0 0-.04.02.47.47 0 0 0-.04.03.47.47 0 0 0-.04.02.47.47 0 0 0-.04.04.47.47 0 0 0-.03.03.47.47 0 0 0-.03.04.47.47 0 0 0-.02.04.47.47 0 0 0-.02.04.47.47 0 0 0-.02.04.47.47 0 0 0-.01.05.47.47 0 0 0 0 .05.47.47 0 0 0-.01.04.47.47 0 0 0 0 .04.47.47 0 0 0 0 .05.47.47 0 0 0 .02.04.47.47 0 0 0 .01.05.47.47 0 0 0 .02.04.47.47 0 0 0 .03.04.47.47 0 0 0 .02.04.47.47 0 0 0 .03.03.47.47 0 0 0 .04.04.47.47 0 0 0 .04.03.47.47 0 0 0 .04.02.47.47 0 0 0 .04.02.47.47 0 0 0 .04.02.47.47 0 0 0 .05 0 .47.47 0 0 0 .05.02.47.47 0 0 0 .04 0 .47.47 0 0 0 .04 0 .47.47 0 0 0 .04 0A.47.47 0 0 0 8.3 5 .47.47 0 0 0 8.34 5a.47.47 0 0 0 .04-.02.47.47 0 0 0 .04-.03.47.47 0 0 0 .04-.02.47.47 0 0 0 .03-.04.47.47 0 0 0 .04-.03.47.47 0 0 0 .02-.04.47.47 0 0 0 .03-.04.47.47 0 0 0 .02-.04.47.47 0 0 0 .02-.05.47.47 0 0 0 0-.04.47.47 0 0 0 .01-.05.47.47 0 0 0 0-.05.47.47 0 0 0 0-.03.47.47 0 0 0 0-.05.47.47 0 0 0-.01-.04.47.47 0 0 0-.02-.05.47.47 0 0 0-.01-.04.47.47 0 0 0-.03-.04.47.47 0 0 0-.03-.04.47.47 0 0 0-.03-.03.47.47 0 0 0-.03-.04.47.47 0 0 0-.04-.03.47.47 0 0 0-.04-.02.47.47 0 0 0-.04-.02.47.47 0 0 0-.05-.02.47.47 0 0 0-.04 0 .47.47 0 0 0-.05-.02.47.47 0 0 0-.05 0z" fill="#1a1a1a"/><path d="M7.5 1.88L7.04 3.6H8.4a.7.7 0 0 1 .06 0 .7.7 0 0 1 .07.01.7.7 0 0 1 .07.02.7.7 0 0 1 .06.02.7.7 0 0 1 .07.03.7.7 0 0 1 .06.03.7.7 0 0 1 .05.05.7.7 0 0 1 .06.04.7.7 0 0 1 .04.05.7.7 0 0 1 .04.06.7.7 0 0 1 .04.06.7.7 0 0 1 .03.06.7.7 0 0 1 .02.07.7.7 0 0 1 .02.07.7.7 0 0 1 0 .07.7.7 0 0 1 .01.07v1.35l1.72-.46A4.7 4.7 0 0 0 7.5 1.88z" fill="#479ae1"/><path d="M8.28 8.4L9.6 9.74a4.7 4.7 0 0 0 1.2-4.53l-1.7.46v.76a2.82 2.82 0 0 1 0 .03 2.82 2.82 0 0 1-.03.29 2.82 2.82 0 0 1-.04.27 2.82 2.82 0 0 1-.08.28 2.82 2.82 0 0 1-.1.26 2.82 2.82 0 0 1-.12.25 2.82 2.82 0 0 1-.15.24 2.82 2.82 0 0 1-.17.22 2.82 2.82 0 0 1-.14.15z" fill="#4fae53"/><path d="M5.55 9.14l-.48 1.8A4.7 4.7 0 0 0 9.6 9.72L8.28 8.4a2.82 2.82 0 0 1-.06.07 2.82 2.82 0 0 1-.21.18 2.82 2.82 0 0 1-.24.16 2.82 2.82 0 0 1-.24.14 2.82 2.82 0 0 1-.26.11 2.82 2.82 0 0 1-.27.09 2.82 2.82 0 0 1-.28.06 2.82 2.82 0 0 1-.28.03 2.82 2.82 0 0 1-.28 0 2.82 2.82 0 0 1-.28-.03 2.82 2.82 0 0 1-.28-.05 2.82 2.82 0 0 1-.05-.02z" fill="#e0ad2f"/><path d="M3.56 7.15l-1.82.48a4.7 4.7 0 0 0 3.33 3.31l.48-1.8a2.82 2.82 0 0 1-.22-.06 2.82 2.82 0 0 1-.26-.11 2.82 2.82 0 0 1-.24-.13 2.82 2.82 0 0 1-.24-.16 2.82 2.82 0 0 1-.22-.18 2.82 2.82 0 0 1-.2-.2A2.82 2.82 0 0 1 4 8.08a2.82 2.82 0 0 1-.16-.24 2.82 2.82 0 0 1-.13-.25 2.82 2.82 0 0 1-.1-.26 2.82 2.82 0 0 1-.05-.18z" fill="#e98928"/><path d="M2.97 3.09a4.7 4.7 0 0 0-1.23 4.54l1.82-.48a2.82 2.82 0 0 1-.03-.09 2.82 2.82 0 0 1-.05-.28 2.82 2.82 0 0 1-.02-.28 2.82 2.82 0 0 1 0-.28 2.82 2.82 0 0 1 .04-.28 2.82 2.82 0 0 1 .06-.28 2.82 2.82 0 0 1 .09-.26 2.82 2.82 0 0 1 .12-.26 2.82 2.82 0 0 1 .14-.24 2.82 2.82 0 0 1 .16-.23 2.82 2.82 0 0 1 .19-.22 2.82 2.82 0 0 1 .03-.03z" fill="#d74845"/><path d="M6.1 1.72a4.7 4.7 0 0 0-3.14 1.39l1.32 1.32a2.82 2.82 0 0 1 .18-.17 2.82 2.82 0 0 1 .23-.17 2.82 2.82 0 0 1 .24-.15 2.82 2.82 0 0 1 .25-.12 2.82 2.82 0 0 1 .27-.1 2.82 2.82 0 0 1 .27-.07A2.82 2.82 0 0 1 6 3.61a2.82 2.82 0 0 1 .28-.01h.76l.46-1.72a4.7 4.7 0 0 0-1.4-.16z" fill="#a458b8"/></svg>

<?xml version="1.0" encoding="UTF-8" standalone="no"?>
<svg
   xmlns:dc="http://purl.org/dc/elements/1.1/"
   xmlns:cc="http://creativecommons.org/ns#"
   xmlns:rdf="http://www.w3.org/1999/02/22-rdf-syntax-ns#"
   xmlns:svg="http://www.w3.org/2000/svg"
   xmlns="http://www.w3.org/2000/svg"
   xmlns:sodipodi="http://sodipodi.sourceforge.net/DTD/sodipodi-0.dtd"
   xmlns:inkscape="http://www.inkscape.org/namespaces/inkscape"
   width="48"
   height="48"
   viewBox="0 0 12.7 12.7"
   version="1.1"
   id="svg16"
   sodipodi:docname="com.github.themix_project.Oomox.svg"
   inkscape:version="0.92.4 (5da689c313, 2019-01-14)">
  <metadata
     id="metadata22">
    <rdf:RDF>
      <cc:Work
         rdf:about="">
        <dc:format>image/svg+xml</dc:format>
        <dc:type
           rdf:resource="http://purl.org/dc/dcmitype/StillImage" />
        <dc:title></dc:title>
      </cc:Work>
    </rdf:RDF>
  </metadata>
  <defs
     id="defs20" />
  <sodipodi:namedview
     pagecolor="#ffffff"
     bordercolor="#666666"
     borderopacity="1"
     objecttolerance="10"
     gridtolerance="10"
     guidetolerance="10"
     inkscape:pageopacity="0"
     inkscape:pageshadow="2"
     inkscape:window-width="1087"
     inkscape:window-height="480"
     id="namedview18"
     showgrid="false"
     inkscape:zoom="4.9166667"
     inkscape:cx="2.1355932"
     inkscape:cy="24"
     inkscape:window-x="0"
     inkscape:window-y="25"
     inkscape:window-maximized="0"
     inkscape:current-layer="svg16" />
  <path
     d="M 6.34,0.07 A 6.29,6.29 0 0 0 0.05,6.37 6.29,6.29 0 0 0 6.35,12.65 6.29,6.29 0 0 0 12.63,6.36 6.29,6.29 0 0 0 6.34,0.07 Z M 6.32,1 6.33,1.01 a 5.4,5.4 0 0 1 5.4,5.4 5.4,5.4 0 0 1 -5.4,5.41 A 5.4,5.4 0 0 1 0.92,6.42 5.4,5.4 0 0 1 6.32,1 Z M 6.1,1.72 A 4.7,4.7 0 0 0 2.97,3.1 4.7,4.7 0 0 0 1.74,7.64 4.7,4.7 0 0 0 5.07,10.95 4.7,4.7 0 0 0 9.6,9.73 4.7,4.7 0 0 0 10.8,5.2 h 0.01 A 4.7,4.7 0 0 0 7.5,1.88 L 7.04,3.6 H 8.4 A 0.7,0.7 0 0 1 8.46,3.6 0.7,0.7 0 0 1 8.53,3.61 0.7,0.7 0 0 1 8.6,3.63 0.7,0.7 0 0 1 8.66,3.65 0.7,0.7 0 0 1 8.73,3.68 0.7,0.7 0 0 1 8.79,3.71 0.7,0.7 0 0 1 8.84,3.76 0.7,0.7 0 0 1 8.9,3.8 0.7,0.7 0 0 1 8.94,3.85 0.7,0.7 0 0 1 8.98,3.91 0.7,0.7 0 0 1 9.02,3.97 0.7,0.7 0 0 1 9.05,4.03 0.7,0.7 0 0 1 9.07,4.1 0.7,0.7 0 0 1 9.09,4.17 0.7,0.7 0 0 1 9.09,4.24 0.7,0.7 0 0 1 9.1,4.31 V 6.42 A 2.82,2.82 0 0 1 9.1,6.45 2.82,2.82 0 0 1 9.08,6.74 2.82,2.82 0 0 1 9.04,7.01 2.82,2.82 0 0 1 8.96,7.29 2.82,2.82 0 0 1 8.86,7.55 2.82,2.82 0 0 1 8.74,7.8 2.82,2.82 0 0 1 8.59,8.04 2.82,2.82 0 0 1 8.41,8.26 2.82,2.82 0 0 1 8.28,8.41 2.82,2.82 0 0 1 8.22,8.47 2.82,2.82 0 0 1 8.01,8.65 2.82,2.82 0 0 1 7.77,8.81 2.82,2.82 0 0 1 7.53,8.95 2.82,2.82 0 0 1 7.27,9.06 2.82,2.82 0 0 1 7,9.15 2.82,2.82 0 0 1 6.72,9.21 2.82,2.82 0 0 1 6.44,9.24 2.82,2.82 0 0 1 6.16,9.24 2.82,2.82 0 0 1 5.88,9.21 2.82,2.82 0 0 1 5.6,9.16 2.82,2.82 0 0 1 5.55,9.14 2.82,2.82 0 0 1 5.34,9.08 2.82,2.82 0 0 1 5.07,8.97 2.82,2.82 0 0 1 4.83,8.84 2.82,2.82 0 0 1 4.59,8.68 2.82,2.82 0 0 1 4.37,8.5 2.82,2.82 0 0 1 4.17,8.3 2.82,2.82 0 0 1 4,8.08 2.82,2.82 0 0 1 3.84,7.84 2.82,2.82 0 0 1 3.71,7.59 2.82,2.82 0 0 1 3.61,7.33 2.82,2.82 0 0 1 3.56,7.15 2.82,2.82 0 0 1 3.53,7.06 2.82,2.82 0 0 1 3.48,6.78 2.82,2.82 0 0 1 3.46,6.5 2.82,2.82 0 0 1 3.46,6.22 2.82,2.82 0 0 1 3.5,5.94 2.82,2.82 0 0 1 3.56,5.66 2.82,2.82 0 0 1 3.65,5.4 2.82,2.82 0 0 1 3.77,5.14 2.82,2.82 0 0 1 3.91,4.9 2.82,2.82 0 0 1 4.07,4.67 2.82,2.82 0 0 1 4.26,4.45 2.82,2.82 0 0 1 4.28,4.43 2.82,2.82 0 0 1 4.29,4.42 2.82,2.82 0 0 1 4.46,4.26 2.82,2.82 0 0 1 4.69,4.09 2.82,2.82 0 0 1 4.93,3.94 2.82,2.82 0 0 1 5.18,3.82 2.82,2.82 0 0 1 5.45,3.72 2.82,2.82 0 0 1 5.72,3.65 2.82,2.82 0 0 1 6,3.61 2.82,2.82 0 0 1 6.28,3.6 H 7.04 L 7.5,1.88 A 4.7,4.7 0 0 0 6.1,1.72 Z m 2.06,2.35 a 0.47,0.47 0 0 0 -0.03,0 0.47,0.47 0 0 0 -0.05,0 A 0.47,0.47 0 0 0 8.04,4.09 0.47,0.47 0 0 0 7.99,4.1 0.47,0.47 0 0 0 7.95,4.12 0.47,0.47 0 0 0 7.91,4.15 0.47,0.47 0 0 0 7.87,4.17 0.47,0.47 0 0 0 7.83,4.21 0.47,0.47 0 0 0 7.8,4.24 0.47,0.47 0 0 0 7.77,4.28 0.47,0.47 0 0 0 7.75,4.32 0.47,0.47 0 0 0 7.73,4.36 0.47,0.47 0 0 0 7.71,4.4 0.47,0.47 0 0 0 7.7,4.45 a 0.47,0.47 0 0 0 0,0.05 0.47,0.47 0 0 0 -0.01,0.04 0.47,0.47 0 0 0 0,0.04 0.47,0.47 0 0 0 0,0.05 A 0.47,0.47 0 0 0 7.71,4.67 0.47,0.47 0 0 0 7.72,4.72 0.47,0.47 0 0 0 7.74,4.76 0.47,0.47 0 0 0 7.77,4.8 0.47,0.47 0 0 0 7.79,4.84 0.47,0.47 0 0 0 7.82,4.87 0.47,0.47 0 0 0 7.86,4.91 0.47,0.47 0 0 0 7.9,4.94 0.47,0.47 0 0 0 7.94,4.96 0.47,0.47 0 0 0 7.98,4.98 0.47,0.47 0 0 0 8.02,5 a 0.47,0.47 0 0 0 0.05,0 0.47,0.47 0 0 0 0.05,0.02 0.47,0.47 0 0 0 0.04,0 0.47,0.47 0 0 0 0.04,0 0.47,0.47 0 0 0 0.04,0 A 0.47,0.47 0 0 0 8.3,5 0.47,0.47 0 0 0 8.34,5 0.47,0.47 0 0 0 8.38,4.98 0.47,0.47 0 0 0 8.42,4.95 0.47,0.47 0 0 0 8.46,4.93 0.47,0.47 0 0 0 8.49,4.89 0.47,0.47 0 0 0 8.53,4.86 0.47,0.47 0 0 0 8.55,4.82 0.47,0.47 0 0 0 8.58,4.78 0.47,0.47 0 0 0 8.6,4.74 0.47,0.47 0 0 0 8.62,4.69 a 0.47,0.47 0 0 0 0,-0.04 0.47,0.47 0 0 0 0.01,-0.05 0.47,0.47 0 0 0 0,-0.05 0.47,0.47 0 0 0 0,-0.03 0.47,0.47 0 0 0 0,-0.05 A 0.47,0.47 0 0 0 8.62,4.43 0.47,0.47 0 0 0 8.6,4.38 0.47,0.47 0 0 0 8.59,4.34 0.47,0.47 0 0 0 8.56,4.3 0.47,0.47 0 0 0 8.53,4.26 0.47,0.47 0 0 0 8.5,4.23 0.47,0.47 0 0 0 8.47,4.19 0.47,0.47 0 0 0 8.43,4.16 0.47,0.47 0 0 0 8.39,4.14 0.47,0.47 0 0 0 8.35,4.12 0.47,0.47 0 0 0 8.3,4.1 0.47,0.47 0 0 0 8.26,4.1 0.47,0.47 0 0 0 8.21,4.08 a 0.47,0.47 0 0 0 -0.05,0 z"
     id="path2"
     inkscape:connector-curvature="0"
     style="fill:#1a1a1a" />
  <path
     d="M 7.5,1.88 7.04,3.6 H 8.4 A 0.7,0.7 0 0 1 8.46,3.6 0.7,0.7 0 0 1 8.53,3.61 0.7,0.7 0 0 1 8.6,3.63 0.7,0.7 0 0 1 8.66,3.65 0.7,0.7 0 0 1 8.73,3.68 0.7,0.7 0 0 1 8.79,3.71 0.7,0.7 0 0 1 8.84,3.76 0.7,0.7 0 0 1 8.9,3.8 0.7,0.7 0 0 1 8.94,3.85 0.7,0.7 0 0 1 8.98,3.91 0.7,0.7 0 0 1 9.02,3.97 0.7,0.7 0 0 1 9.05,4.03 0.7,0.7 0 0 1 9.07,4.1 0.7,0.7 0 0 1 9.09,4.17 0.7,0.7 0 0 1 9.09,4.24 0.7,0.7 0 0 1 9.1,4.31 V 5.66 L 10.82,5.2 A 4.7,4.7 0 0 0 7.5,1.88 Z"
     id="path4"
     inkscape:connector-curvature="0"
     style="fill:#479ae1" />
  <path
     d="M 8.28,8.4 9.6,9.74 A 4.7,4.7 0 0 0 10.8,5.21 L 9.1,5.67 V 6.43 A 2.82,2.82 0 0 1 9.1,6.46 2.82,2.82 0 0 1 9.07,6.75 2.82,2.82 0 0 1 9.03,7.02 2.82,2.82 0 0 1 8.95,7.3 2.82,2.82 0 0 1 8.85,7.56 2.82,2.82 0 0 1 8.73,7.81 2.82,2.82 0 0 1 8.58,8.05 2.82,2.82 0 0 1 8.41,8.27 2.82,2.82 0 0 1 8.27,8.42 Z"
     id="path6"
     inkscape:connector-curvature="0"
     style="fill:#4fae53" />
  <path
     d="m 5.55,9.14 -0.48,1.8 A 4.7,4.7 0 0 0 9.6,9.72 L 8.28,8.4 A 2.82,2.82 0 0 1 8.22,8.47 2.82,2.82 0 0 1 8.01,8.65 2.82,2.82 0 0 1 7.77,8.81 2.82,2.82 0 0 1 7.53,8.95 2.82,2.82 0 0 1 7.27,9.06 2.82,2.82 0 0 1 7,9.15 2.82,2.82 0 0 1 6.72,9.21 2.82,2.82 0 0 1 6.44,9.24 2.82,2.82 0 0 1 6.16,9.24 2.82,2.82 0 0 1 5.88,9.21 2.82,2.82 0 0 1 5.6,9.16 2.82,2.82 0 0 1 5.55,9.14 Z"
     id="path8"
     inkscape:connector-curvature="0"
     style="fill:#e0ad2f" />
  <path
     d="M 3.56,7.15 1.74,7.63 a 4.7,4.7 0 0 0 3.33,3.31 L 5.55,9.14 A 2.82,2.82 0 0 1 5.33,9.08 2.82,2.82 0 0 1 5.07,8.97 2.82,2.82 0 0 1 4.83,8.84 2.82,2.82 0 0 1 4.59,8.68 2.82,2.82 0 0 1 4.37,8.5 2.82,2.82 0 0 1 4.17,8.3 2.82,2.82 0 0 1 4,8.08 2.82,2.82 0 0 1 3.84,7.84 2.82,2.82 0 0 1 3.71,7.59 2.82,2.82 0 0 1 3.61,7.33 2.82,2.82 0 0 1 3.56,7.15 Z"
     id="path10"
     inkscape:connector-curvature="0"
     style="fill:#e98928" />
  <path
     d="M 2.97,3.09 A 4.7,4.7 0 0 0 1.74,7.63 L 3.56,7.15 A 2.82,2.82 0 0 1 3.53,7.06 2.82,2.82 0 0 1 3.48,6.78 2.82,2.82 0 0 1 3.46,6.5 2.82,2.82 0 0 1 3.46,6.22 2.82,2.82 0 0 1 3.5,5.94 2.82,2.82 0 0 1 3.56,5.66 2.82,2.82 0 0 1 3.65,5.4 2.82,2.82 0 0 1 3.77,5.14 2.82,2.82 0 0 1 3.91,4.9 2.82,2.82 0 0 1 4.07,4.67 2.82,2.82 0 0 1 4.26,4.45 2.82,2.82 0 0 1 4.29,4.42 Z"
     id="path12"
     inkscape:connector-curvature="0"
     style="fill:#d74845" />
  <path
     d="M 6.1,1.72 A 4.7,4.7 0 0 0 2.96,3.11 L 4.28,4.43 A 2.82,2.82 0 0 1 4.46,4.26 2.82,2.82 0 0 1 4.69,4.09 2.82,2.82 0 0 1 4.93,3.94 2.82,2.82 0 0 1 5.18,3.82 2.82,2.82 0 0 1 5.45,3.72 2.82,2.82 0 0 1 5.72,3.65 2.82,2.82 0 0 1 6,3.61 2.82,2.82 0 0 1 6.28,3.6 H 7.04 L 7.5,1.88 A 4.7,4.7 0 0 0 6.1,1.72 Z"
     id="path14"
     inkscape:connector-curvature="0"
     style="fill:#a458b8" />
</svg>
